X: 1
T: Gan Ainm
M: 4/4
L: 1/8
R: reel
K: Amaj
A2 AB ABcd|e2 ef e2 a2|f2 d2 e2 c2|dcBA B2 e2|
A2 AB ABcd|e2 ce f2 g2|a2 ga f2 ec|edcB A2 a2|
a2 ga f2 ga|e2 ga f2 e2|d2 dc dfed|c2 de B2 e2|
f2 ga e2 ga|f2 ga e2 c2|defe fgac|d2 cB A2 AG|
F2 c2 F2 B2|c2 de d2 c2|d2 f2 B2 d2|G2 AB A2 G2|
F2 c2 F2 B2|c2 de de f2|G2 AB c2 F2|B2 GA F2 e2|
a2 ab abc'd'|e'2 e'f' e'2 z2|f2 d2 e2 c2|dcBA B2 z2|
A2 G2 ABcd|e3 c f2 z2|a2 ga f2 zc|edcB A2 a2||
